;FLAVOR:Marlin
;TIME:9220
;Filament used: 5.59303m
;Layer height: 0.16
;MINX:98.7
;MINY:91.201
;MINZ:0.2
;MAXX:136.3
;MAXY:143.799
;MAXZ:22.92
;Generated with Cura_SteamEngine 4.8.0
M140 S60
M105
M190 S60
M104 S200
M105
M109 S200
M82 ;absolute extrusion mode
; Ender 3 Custom Start G-code
G92 E0 ; Reset Extruder
G28 ; Home all axes
G1 Z2.0 F3000 ; Move Z Axis up little to prevent scratching of Heat Bed
G1 X0.1 Y20 Z0.3 F5000.0 ; Move to start position
G1 X0.1 Y200.0 Z0.3 F1500.0 E15 ; Draw the first line
G1 X0.4 Y200.0 Z0.3 F5000.0 ; Move to side a little
G1 X0.4 Y20 Z0.3 F1500.0 E30 ; Draw the second line
G92 E0 ; Reset Extruder
G1 Z2.0 F3000 ; Move Z Axis up little to prevent scratching of Heat Bed
G1 X5 Y20 Z0.3 F5000.0 ; Move over to prevent blob squish
G92 E0
G92 E0
G1 F1500 E-6.5
;LAYER_COUNT:130
;LAYER:0
M107
;MESH:Mini-Blind-Motor-Mount-with-Controller-Box.stl
G0 F6000 X101.041 Y142.999 Z0.2
;TYPE:WALL-INNER
G1 F1500 E0
G1 F1200 X101.02 Y112.999 E0.9978
G1 X100.817 Y112.999 E1.00456
G1 X100.618 Y112.999 E1.01117
G1 X100.618 Y112.8 E1.01546
G1 X100.619 Y92.001 E1.70723
G1 X134.38 Y92.001 E2.83013
G1 X134.38 Y112.999 E3.52853
G1 X134.202 Y112.999 E3.53445
G1 X134.192 Y142.999 E4.53225
G1 X101.041 Y142.999 E5.63486
G0 F6000 X100.641 Y143.399
G1 F1200 X100.62 Y113.399 E6.63266
G1 X100.417 Y113.399 E6.63941
G1 X100.218 Y113.399 E6.64603
G1 X100.218 Y113.2 E6.65031
G1 X100.219 Y91.601 E7.3687
G1 X134.78 Y91.601 E8.5182
G1 X134.78 Y113.399 E9.24321
G1 X134.602 Y113.399 E9.24913
G1 X134.592 Y143.399 E10.24693
G1 X100.641 Y143.399 E11.37615
G0 F6000 X100.241 Y143.799
;TYPE:WALL-OUTER
G1 F1200 X100.22 Y113.799 E12.37395
G1 X99.818 Y113.799 E12.38732
G1 X99.819 Y91.201 E13.13894
G1 X135.18 Y91.201 E14.31505
G1 X135.18 Y113.799 E15.06666
G1 X135.002 Y113.799 E15.07258
G1 X134.992 Y143.799 E16.07038
G1 X100.241 Y143.799 E17.22621
G0 F6000 X100.511 Y143.529
G0 X101.431 Y142.889
G0 X101.431 Y142.609
;TYPE:SKIN
G1 F1200 X101.41 Y112.609 E18.22401
G1 X101.008 Y112.609 E18.23738
G1 X101.009 Y92.391 E18.90983
G1 X133.99 Y92.391 E20.00679
G1 X133.99 Y112.609 E20.67924
G1 X133.812 Y112.609 E20.68516
G1 X133.802 Y142.609 E21.68297
G1 X101.431 Y142.609 E22.75963
G0 F6000 X101.718 Y142.448
G1 F1200 X101.59 Y142.32 E22.76565
G0 F6000 X101.59 Y141.754
G1 F1200 X102.284 Y142.448 E22.79829
G0 F6000 X102.85 Y142.448
G1 F1200 X101.59 Y141.188 E22.85756
G0 F6000 X101.59 Y140.622
G1 F1200 X103.415 Y142.448 E22.94343
G0 F6000 X103.981 Y142.448
G1 F1200 X101.589 Y140.055 E23.05596
G0 F6000 X101.589 Y139.49
G1 F1200 X104.547 Y142.448 E23.1951
G0 F6000 X105.112 Y142.448
G1 F1200 X101.588 Y138.923 E23.36088
G0 F6000 X101.587 Y138.357
G1 F1200 X105.678 Y142.448 E23.55331
G0 F6000 X106.244 Y142.448
G1 F1200 X101.587 Y137.791 E23.77236
G0 F6000 X101.587 Y137.225
G1 F1200 X106.809 Y142.448 E24.01801
G0 F6000 X107.375 Y142.448
G1 F1200 X101.587 Y136.659 E24.29028
G0 F6000 X101.586 Y136.093
G1 F1200 X107.941 Y142.448 E24.5892
G0 F6000 X108.506 Y142.448
G1 F1200 X101.586 Y135.527 E24.91472
G0 F6000 X101.585 Y134.961
G1 F1200 X109.072 Y142.448 E25.26689
G0 F6000 X109.638 Y142.448
G1 F1200 X101.585 Y134.394 E25.6457
G0 F6000 X101.585 Y133.829
G1 F1200 X110.204 Y142.448 E26.05111
G0 F6000 X110.769 Y142.448
G1 F1200 X101.584 Y133.262 E26.48317
G0 F6000 X101.584 Y132.697
G1 F1200 X111.335 Y142.448 E26.94182
G0 F6000 X111.901 Y142.448
G1 F1200 X101.583 Y132.13 E27.42715
G0 F6000 X101.583 Y131.564
G1 F1200 X112.466 Y142.448 E27.93908
G0 F6000 X113.032 Y142.448
G1 F1200 X101.582 Y130.998 E28.47765
G0 F6000 X101.582 Y130.432
G1 F1200 X113.598 Y142.448 E29.04285
G0 F6000 X114.163 Y142.448
G1 F1200 X101.582 Y129.866 E29.63464
G0 F6000 X101.581 Y129.3
G1 F1200 X114.729 Y142.448 E30.25308
G0 F6000 X115.295 Y142.448
G1 F1200 X101.581 Y128.734 E30.89815
G0 F6000 X101.58 Y128.168
G1 F1200 X115.86 Y142.448 E31.56983
G0 F6000 X116.426 Y142.448
G1 F1200 X101.58 Y127.602 E32.26815
G0 F6000 X101.58 Y127.035
G1 F1200 X116.992 Y142.448 E32.9931
G0 F6000 X117.557 Y142.448
G1 F1200 X101.58 Y126.47 E33.74463
G0 F6000 X101.579 Y125.903
G1 F1200 X118.123 Y142.448 E34.52284
G0 F6000 X118.689 Y142.448
G1 F1200 X101.578 Y125.337 E35.32769
G0 F6000 X101.578 Y124.771
G1 F1200 X119.254 Y142.448 E36.15913
G0 F6000 X119.82 Y142.448
G1 F1200 X101.578 Y124.205 E37.01721
G0 F6000 X101.578 Y123.639
G1 F1200 X120.386 Y142.448 E37.9019
G0 F6000 X120.952 Y142.448
G1 F1200 X101.577 Y123.073 E38.81324
G0 F6000 X101.577 Y122.507
G1 F1200 X121.517 Y142.448 E39.75118
G0 F6000 X122.083 Y142.448
G1 F1200 X101.576 Y121.941 E40.71577
G0 F6000 X101.575 Y121.374
G1 F1200 X122.649 Y142.448 E41.70702
G0 F6000 X123.214 Y142.448
G1 F1200 X101.575 Y120.809 E42.72486
G0 F6000 X101.575 Y120.242
G1 F1200 X123.78 Y142.448 E43.76933
G0 F6000 X124.346 Y142.448
G1 F1200 X101.575 Y119.677 E44.84041
G0 F6000 X101.574 Y119.11
G1 F1200 X124.911 Y142.448 E45.93814
G0 F6000 X125.477 Y142.448
G1 F1200 X101.574 Y118.545 E47.06246
G0 F6000 X101.573 Y117.978
G1 F1200 X126.043 Y142.448 E48.21345
G0 F6000 X126.608 Y142.448
G1 F1200 X101.573 Y117.412 E49.39105
G0 F6000 X101.573 Y116.846
G1 F1200 X127.174 Y142.448 E50.59526
G0 F6000 X127.74 Y142.448
G1 F1200 X101.572 Y116.28 E51.82613
G0 F6000 X101.572 Y115.714
G1 F1200 X128.305 Y142.448 E53.08359
G0 F6000 X128.871 Y142.448
G1 F1200 X101.571 Y115.148 E54.3677
G0 F6000 X101.571 Y114.582
G1 F1200 X129.437 Y142.448 E55.67843
G0 F6000 X130.002 Y142.448
G1 F1200 X101.57 Y114.016 E57.01578
G0 F6000 X101.57 Y113.45
G1 F1200 X130.568 Y142.448 E58.37976
G0 F6000 X131.134 Y142.448
G1 F1200 X101.57 Y112.883 E59.77038
G0 F6000 X101.13 Y112.883
G0 X100.8 Y112.817
G0 X100.729 Y111.914
G0 X101.167 Y111.915
G1 F1200 X131.7 Y142.448 E61.20656
G0 F6000 X132.265 Y142.448
G1 F1200 X101.167 Y111.35 E62.66932
G0 F6000 X101.167 Y110.784
G1 F1200 X132.831 Y142.448 E64.15869
G0 F6000 X133.397 Y142.448
G1 F1200 X101.167 Y110.218 E65.67469
G0 F6000 X101.167 Y109.653
G1 F1200 X133.642 Y142.127 E67.20219
G0 F6000 X133.642 Y141.562
G1 F1200 X101.167 Y109.087 E68.72972
G0 F6000 X101.167 Y108.521
G1 F1200 X133.642 Y140.996 E70.25724
G0 F6000 X133.642 Y140.43
G1 F1200 X101.167 Y107.956 E71.78474
G0 F6000 X101.167 Y107.39
G1 F1200 X133.643 Y139.865 E73.31229
G0 F6000 X133.643 Y139.3
G1 F1200 X101.167 Y106.824 E74.83986
G0 F6000 X101.167 Y106.259
G1 F1200 X133.643 Y138.734 E76.36741
G0 F6000 X133.643 Y138.168
G1 F1200 X101.167 Y105.693 E77.89496
G0 F6000 X101.167 Y105.127
G1 F1200 X133.643 Y137.603 E79.42253
G0 F6000 X133.643 Y137.038
G1 F1200 X101.167 Y104.562 E80.9501
G0 F6000 X101.167 Y103.996
G1 F1200 X133.643 Y136.472 E82.47767
G0 F6000 X133.643 Y135.906
G1 F1200 X101.167 Y103.43 E84.00524
G0 F6000 X101.167 Y102.864
G1 F1200 X133.644 Y135.341 E85.53286
G0 F6000 X133.644 Y134.775
G1 F1200 X101.167 Y102.299 E87.06046
G0 F6000 X101.167 Y101.733
G1 F1200 X133.644 Y134.21 E88.58808
G0 F6000 X133.644 Y133.644
G1 F1200 X101.167 Y101.167 E90.1157
G0 F6000 X101.167 Y100.602
G1 F1200 X133.645 Y133.079 E91.64334
G0 F6000 X133.645 Y132.513
G1 F1200 X101.167 Y100.036 E93.17098
G0 F6000 X101.167 Y99.47
G1 F1200 X133.645 Y131.948 E94.69865
G0 F6000 X133.645 Y131.382
G1 F1200 X101.167 Y98.905 E96.22629
G0 F6000 X101.167 Y98.339
G1 F1200 X133.646 Y130.817 E97.75398
G0 F6000 X133.646 Y130.251
G1 F1200 X101.167 Y97.773 E99.28167
G0 F6000 X101.167 Y97.208
G1 F1200 X133.646 Y129.686 E100.80935
G0 F6000 X133.646 Y129.12
G1 F1200 X101.167 Y96.642 E102.33704
G0 F6000 X101.167 Y96.076
G1 F1200 X133.646 Y128.555 E103.86476
G0 F6000 X133.646 Y127.989
G1 F1200 X101.167 Y95.511 E105.39245
G0 F6000 X101.167 Y94.945
G1 F1200 X133.646 Y127.424 E106.92016
G0 F6000 X133.646 Y126.858
G1 F1200 X101.167 Y94.379 E108.44787
G0 F6000 X101.167 Y93.813
G1 F1200 X133.647 Y126.293 E109.97563
G0 F6000 X133.647 Y125.727
G1 F1200 X101.167 Y93.248 E111.50337
G0 F6000 X101.167 Y92.682
G1 F1200 X133.647 Y125.162 E113.03113
G0 F6000 X133.647 Y124.596
G1 F1200 X101.602 Y92.551 E114.53842
G0 F6000 X102.167 Y92.551
G1 F1200 X133.647 Y124.03 E116.01912
G0 F6000 X133.648 Y123.465
G1 F1200 X102.733 Y92.551 E117.47325
G0 F6000 X103.299 Y92.551
G1 F1200 X133.648 Y122.9 E118.90077
G0 F6000 X133.648 Y122.334
G1 F1200 X103.864 Y92.551 E120.30169
G0 F6000 X104.43 Y92.551
G1 F1200 X133.648 Y121.768 E121.676
G0 F6000 X133.648 Y121.203
G1 F1200 X104.996 Y92.551 E123.0237
G0 F6000 X105.561 Y92.551
G1 F1200 X133.648 Y120.638 E124.34483
G0 F6000 X133.648 Y120.072
G1 F1200 X106.127 Y92.551 E125.63933
G0 F6000 X106.693 Y92.551
G1 F1200 X133.648 Y119.506 E126.90721
G0 F6000 X133.649 Y118.941
G1 F1200 X107.258 Y92.551 E128.14854
G0 F6000 X107.824 Y92.551
G1 F1200 X133.649 Y118.376 E129.36327
G0 F6000 X133.649 Y117.81
G1 F1200 X108.39 Y92.551 E130.55137
G0 F6000 X108.955 Y92.551
G1 F1200 X133.649 Y117.244 E131.71288
G0 F6000 X133.65 Y116.679
G1 F1200 X109.521 Y92.551 E132.84781
G0 F6000 X110.087 Y92.551
G1 F1200 X133.65 Y116.114 E133.95614
G0 F6000 X133.65 Y115.548
G1 F1200 X110.653 Y92.551 E135.03785
G0 F6000 X111.218 Y92.551
G1 F1200 X133.65 Y114.982 E136.09296
G0 F6000 X133.65 Y114.417
G1 F1200 X111.784 Y92.551 E137.12147
G0 F6000 X112.35 Y92.551
G1 F1200 X133.65 Y113.851 E138.12335
G0 F6000 X133.65 Y113.286
G1 F1200 X112.915 Y92.551 E139.09867
G0 F6000 X113.481 Y92.551
G1 F1200 X133.65 Y112.72 E140.04735
G0 F6000 X133.829 Y112.333
G1 F1200 X114.047 Y92.551 E140.97784
G0 F6000 X114.612 Y92.551
G1 F1200 X133.829 Y111.767 E141.88172
G0 F6000 X133.829 Y111.201
G1 F1200 X115.178 Y92.551 E142.75899
G0 F6000 X115.744 Y92.551
G1 F1200 X133.829 Y110.636 E143.60965
G0 F6000 X133.829 Y110.07
G1 F1200 X116.309 Y92.551 E144.43371
G0 F6000 X116.875 Y92.551
G1 F1200 X133.829 Y109.504 E145.23115
G0 F6000 X133.829 Y108.938
G1 F1200 X117.441 Y92.551 E146.00197
G0 F6000 X118.006 Y92.551
G1 F1200 X133.829 Y108.373 E146.74621
G0 F6000 X133.829 Y107.807
G1 F1200 X118.572 Y92.551 E147.46383
G0 F6000 X119.138 Y92.551
G1 F1200 X133.829 Y107.241 E148.15483
G0 F6000 X133.829 Y106.676
G1 F1200 X119.703 Y92.551 E148.81925
G0 F6000 X120.269 Y92.551
G1 F1200 X133.829 Y106.11 E149.45704
G0 F6000 X133.829 Y105.544
G1 F1200 X120.835 Y92.551 E150.06822
G0 F6000 X121.401 Y92.551
G1 F1200 X133.829 Y104.979 E150.65279
G0 F6000 X133.829 Y104.413
G1 F1200 X121.966 Y92.551 E151.21077
G0 F6000 X122.532 Y92.551
G1 F1200 X133.829 Y103.847 E151.74212
G0 F6000 X133.829 Y103.282
G1 F1200 X123.098 Y92.551 E152.24688
G0 F6000 X123.663 Y92.551
G1 F1200 X133.829 Y102.716 E152.72503
G0 F6000 X133.829 Y102.15
G1 F1200 X124.229 Y92.551 E153.17656
G0 F6000 X124.795 Y92.551
G1 F1200 X133.829 Y101.585 E153.60149
G0 F6000 X133.829 Y101.019
G1 F1200 X125.36 Y92.551 E153.99982
G0 F6000 X125.926 Y92.551
G1 F1200 X133.829 Y100.453 E154.37153
G0 F6000 X133.829 Y99.888
G1 F1200 X126.492 Y92.551 E154.71664
G0 F6000 X127.057 Y92.551
G1 F1200 X133.829 Y99.322 E155.03515
G0 F6000 X133.829 Y98.756
G1 F1200 X127.623 Y92.551 E155.32704
G0 F6000 X128.189 Y92.551
G1 F1200 X133.829 Y98.19 E155.59231
G0 F6000 X133.829 Y97.625
G1 F1200 X128.754 Y92.551 E155.831
G0 F6000 X129.32 Y92.551
G1 F1200 X133.829 Y97.059 E156.04306
G0 F6000 X133.829 Y96.493
G1 F1200 X129.886 Y92.551 E156.22851
G0 F6000 X130.452 Y92.551
G1 F1200 X133.829 Y95.928 E156.38735
G0 F6000 X133.829 Y95.362
G1 F1200 X131.017 Y92.551 E156.51959
G0 F6000 X131.583 Y92.551
G1 F1200 X133.829 Y94.796 E156.62521
G0 F6000 X133.829 Y94.231
G1 F1200 X132.149 Y92.551 E156.70424
G0 F6000 X132.714 Y92.551
G1 F1200 X133.829 Y93.665 E156.75666
G0 F6000 X133.829 Y93.099
G1 F1200 X133.28 Y92.551 E156.78246
G0 F6000 X133.28 Y91.811
G1 F1500 E150.28246
;MESH:NONMESH
G0 F300 X133.28 Y91.811 Z0.32
G0 F6000 X100.801 Y92.183
G0 X100.786 Y142.999
;TIME_ELAPSED:252.831587
;LAYER:1
M106 S85
;TYPE:WALL-INNER
;MESH:Mini-Blind-Motor-Mount-with-Controller-Box.stl
G1 F1500 E156.78246
G1 F1350 X100.766 Y112.999 E157.38114
G1 X100.408 Y112.999 E157.38829
G1 X100.408 Y92.001 E157.80732
G1 X134.592 Y92.001 E158.4895
G1 X134.593 Y112.999 E158.90854
G1 X134.375 Y112.999 E158.91289
G1 X134.365 Y142.999 E159.51157
G1 X100.786 Y142.999 E160.18168
G0 F7500 X100.386 Y143.399
G1 F1350 X100.366 Y113.399 E160.78036
G1 X100.008 Y113.399 E160.78751
G1 X100.008 Y91.601 E161.22251
G1 X134.992 Y91.601 E161.92065
G1 X134.993 Y113.399 E162.35565
G1 X134.775 Y113.399 E162.36
G1 X134.765 Y143.399 E162.95869
G1 X100.386 Y143.399 E163.64476
G0 F7500 X99.986 Y143.799
;TYPE:WALL-OUTER
G1 F1350 X99.966 Y113.799 E164.24344
G1 X99.608 Y113.799 E164.25058
G1 X99.608 Y91.201 E164.70155
G1 X135.392 Y91.201 E165.41566
G1 X135.393 Y113.799 E165.86663
G1 X135.175 Y113.799 E165.87098
G1 X135.165 Y143.799 E166.46966
G1 X99.986 Y143.799 E167.1717
G0 F7500 X100.256 Y143.529
G0 X101.176 Y142.889
G0 X101.176 Y142.609
;TYPE:SKIN
G1 F1350 X101.156 Y112.609 E167.77038
G1 X100.798 Y112.609 E167.77752
G1 X100.798 Y92.391 E168.18099
G1 X134.202 Y92.391 E168.84761
G1 X134.203 Y112.609 E169.25108
G1 X133.985 Y112.609 E169.25543
G1 X133.975 Y142.609 E169.85411
G1 X101.176 Y142.609 E170.50865
G1 F1500 E164.00865
G0 F7500 X101.176 Y142.889
G0 X133.605 Y142.889
G0 X133.605 Y142.448
G1 F1500 E170.50865
G1 F1350 X133.815 Y142.239 E170.51456
G0 F7500 X133.815 Y141.673
G1 F1350 X133.04 Y142.448 E170.53644
G0 F7500 X132.474 Y142.448
G1 F1350 X133.815 Y141.108 E170.57427
G0 F7500 X133.815 Y140.542
G1 F1350 X131.908 Y142.448 E170.62807
G0 F7500 X131.342 Y142.448
G1 F1350 X133.815 Y139.976 E170.69785
G0 F7500 X133.815 Y139.41
G1 F1350 X130.777 Y142.448 E170.78359
G0 F7500 X130.211 Y142.448
G1 F1350 X133.815 Y138.844 E170.8853
G0 F7500 X133.815 Y138.278
G1 F1350 X129.645 Y142.448 E171.00299
G0 F7500 X129.08 Y142.448
G1 F1350 X133.816 Y137.712 E171.13665
G0 F7500 X133.816 Y137.146
G1 F1350 X128.514 Y142.448 E171.28628
G0 F7500 X127.948 Y142.448
G1 F1350 X133.816 Y136.581 E171.45188
G0 F7500 X133.817 Y136.014
G1 F1350 X127.383 Y142.448 E171.63346
G0 F7500 X126.817 Y142.448
G1 F1350 X133.817 Y135.449 E171.831
G0 F7500 X133.817 Y134.883
G1 F1350 X126.251 Y142.448 E172.04452
G0 F7500 X125.686 Y142.448
G1 F1350 X133.817 Y134.317 E172.27399
G0 F7500 X133.817 Y133.751
G1 F1350 X125.12 Y142.448 E172.51944
G0 F7500 X124.554 Y142.448
G1 F1350 X133.817 Y133.185 E172.78086
G0 F7500 X133.817 Y132.619
G1 F1350 X123.989 Y142.448 E173.05824
G0 F7500 X123.423 Y142.448
G1 F1350 X133.817 Y132.054 E173.35158
G0 F7500 X133.818 Y131.487
G1 F1350 X122.857 Y142.448 E173.66093
G0 F7500 X122.291 Y142.448
G1 F1350 X133.818 Y130.922 E173.98623
G0 F7500 X133.818 Y130.356
G1 F1350 X121.726 Y142.448 E174.32749
G0 F7500 X121.16 Y142.448
G1 F1350 X133.818 Y129.79 E174.68473
G0 F7500 X133.819 Y129.224
G1 F1350 X120.594 Y142.448 E175.05795
G0 F7500 X120.029 Y142.448
G1 F1350 X133.819 Y128.658 E175.44713
G0 F7500 X133.819 Y128.093
G1 F1350 X119.463 Y142.448 E175.85228
G0 F7500 X118.897 Y142.448
G1 F1350 X133.819 Y127.527 E176.27339
G0 F7500 X133.819 Y126.961
G1 F1350 X118.332 Y142.448 E176.71047
G0 F7500 X117.766 Y142.448
G1 F1350 X133.819 Y126.395 E177.16352
G0 F7500 X133.819 Y125.829
G1 F1350 X117.2 Y142.448 E177.63255
G0 F7500 X116.635 Y142.448
G1 F1350 X133.82 Y125.263 E178.11754
G0 F7500 X133.82 Y124.697
G1 F1350 X116.069 Y142.448 E178.61852
G0 F7500 X115.503 Y142.448
G1 F1350 X133.82 Y124.131 E179.13546
G0 F7500 X133.82 Y123.566
G1 F1350 X114.938 Y142.448 E179.66835
G0 F7500 X114.372 Y142.448
G1 F1350 X133.821 Y122.999 E180.21724
G0 F7500 X133.821 Y122.434
G1 F1350 X113.806 Y142.448 E180.7821
G0 F7500 X113.241 Y142.448
G1 F1350 X133.821 Y121.868 E181.36291
G0 F7500 X133.821 Y121.302
G1 F1350 X112.675 Y142.448 E181.95969
G0 F7500 X112.109 Y142.448
G1 F1350 X133.822 Y120.736 E182.57247
G0 F7500 X133.822 Y120.17
G1 F1350 X111.543 Y142.448 E183.20122
G0 F7500 X110.978 Y142.448
G1 F1350 X133.822 Y119.604 E183.84592
G0 F7500 X133.822 Y119.039
G1 F1350 X110.412 Y142.448 E184.50659
G0 F7500 X109.846 Y142.448
G1 F1350 X133.822 Y118.472 E185.18324
G0 F7500 X133.822 Y117.907
G1 F1350 X109.281 Y142.448 E185.87584
G0 F7500 X108.715 Y142.448
G1 F1350 X133.822 Y117.341 E186.58442
G0 F7500 X133.822 Y116.775
G1 F1350 X108.149 Y142.448 E187.30897
G0 F7500 X107.584 Y142.448
