;FLAVOR:Marlin
;TIME:5818
;Filament used: 3.77215m
;Layer height: 0.16
;MINX:98.7
;MINY:101.694
;MINZ:0.2
;MAXX:136.3
;MAXY:134.171
;MAXZ:22.84
;Generated with Cura_SteamEngine 4.8.0
M140 S60
M105
M190 S60
M104 S200
M105
M109 S200
M82 ;absolute extrusion mode
; Ender 3 Custom Start G-code
G92 E0 ; Reset Extruder
G28 ; Home all axes
G1 Z2.0 F3000 ; Move Z Axis up little to prevent scratching of Heat Bed
G1 X0.1 Y20 Z0.3 F5000.0 ; Move to start position
G1 X0.1 Y200.0 Z0.3 F1500.0 E15 ; Draw the first line
G1 X0.4 Y200.0 Z0.3 F5000.0 ; Move to side a little
G1 X0.4 Y20 Z0.3 F1500.0 E30 ; Draw the second line
G92 E0 ; Reset Extruder
G1 Z2.0 F3000 ; Move Z Axis up little to prevent scratching of Heat Bed
G1 X5 Y20 Z0.3 F5000.0 ; Move over to prevent blob squish
G92 E0
G92 E0
G1 F1500 E-6.5
;LAYER_COUNT:120
;LAYER:0
M107
;MESH:Mini-Blind-Controller-Box-Only.stl
G0 F6000 X101.041 Y132.506 Z0.2
;TYPE:WALL-INNER
G1 F1500 E0
G1 F1200 X101.02 Y102.693 E0.99158
G1 X101.02 Y102.494 E0.9982
G1 X101.219 Y102.494 E1.00249
G1 X134.004 Y102.494 E2.09292
G1 X134.203 Y102.494 E2.09954
G1 X134.203 Y102.693 E2.10382
G1 X134.192 Y132.506 E3.0954
G1 X101.041 Y132.506 E4.19801
G0 F6000 X100.641 Y132.906
G1 F1200 X100.62 Y102.293 E5.2162
G1 X100.62 Y102.094 E5.22282
G1 X100.819 Y102.094 E5.22711
G1 X134.404 Y102.094 E6.34415
G1 X134.603 Y102.094 E6.35077
G1 X134.603 Y102.293 E6.35505
G1 X134.592 Y132.906 E7.37324
G1 X100.641 Y132.906 E8.50246
G0 F6000 X100.241 Y133.306
;TYPE:WALL-OUTER
G1 F1200 X100.22 Y101.694 E9.55388
G1 X135.003 Y101.694 E10.71076
G1 X134.992 Y133.306 E11.76218
G1 X100.241 Y133.306 E12.918
G0 F6000 X100.511 Y133.036
G0 X101.431 Y132.396
G0 X101.431 Y132.116
;TYPE:SKIN
G1 F1200 X101.41 Y102.884 E13.89027
G1 X133.813 Y102.884 E14.96799
G1 X133.802 Y132.116 E15.94025
G1 X101.431 Y132.116 E17.01692
G0 F6000 X101.973 Y131.955
G1 F1200 X101.59 Y131.571 E17.03496
G0 F6000 X101.59 Y131.005
G1 F1200 X102.539 Y131.955 E17.07962
G0 F6000 X103.105 Y131.955
G1 F1200 X101.589 Y130.439 E17.15093
G0 F6000 X101.588 Y129.872
G1 F1200 X103.671 Y131.955 E17.2489
G0 F6000 X104.236 Y131.955
G1 F1200 X101.588 Y129.307 E17.37346
G0 F6000 X101.587 Y128.74
G1 F1200 X104.802 Y131.955 E17.52468
G0 F6000 X105.368 Y131.955
G1 F1200 X101.587 Y128.175 E17.7025
G0 F6000 X101.587 Y127.608
G1 F1200 X105.933 Y131.955 E17.90695
G0 F6000 X106.499 Y131.955
G1 F1200 X101.586 Y127.042 E18.13804
G0 F6000 X101.586 Y126.476
G1 F1200 X107.065 Y131.955 E18.39576
G0 F6000 X107.63 Y131.955
G1 F1200 X101.585 Y125.91 E18.6801
G0 F6000 X101.585 Y125.344
G1 F1200 X108.196 Y131.955 E18.99106
G0 F6000 X108.762 Y131.955
G1 F1200 X101.585 Y124.778 E19.32864
G0 F6000 X101.584 Y124.211
G1 F1200 X109.327 Y131.955 E19.69287
G0 F6000 X109.893 Y131.955
G1 F1200 X101.584 Y123.646 E20.0837
G0 F6000 X101.583 Y123.079
G1 F1200 X110.459 Y131.955 E20.5012
G0 F6000 X111.024 Y131.955
G1 F1200 X101.583 Y122.514 E20.94528
G0 F6000 X101.582 Y121.947
G1 F1200 X111.59 Y131.955 E21.41602
G0 F6000 X112.156 Y131.955
G1 F1200 X101.582 Y121.381 E21.91339
G0 F6000 X101.582 Y120.815
G1 F1200 X112.722 Y131.955 E22.43738
G0 F6000 X113.287 Y131.955
G1 F1200 X101.581 Y120.249 E22.988
G0 F6000 X101.581 Y119.683
G1 F1200 X113.853 Y131.955 E23.56523
G0 F6000 X114.419 Y131.955
G1 F1200 X101.58 Y119.117 E24.16912
G0 F6000 X101.58 Y118.551
G1 F1200 X114.984 Y131.955 E24.7996
G0 F6000 X115.55 Y131.955
G1 F1200 X101.58 Y117.985 E25.45671
G0 F6000 X101.579 Y117.418
G1 F1200 X116.116 Y131.955 E26.14048
G0 F6000 X116.681 Y131.955
G1 F1200 X101.579 Y116.852 E26.85086
G0 F6000 X101.578 Y116.286
G1 F1200 X117.247 Y131.955 E27.58788
G0 F6000 X117.813 Y131.955
G1 F1200 X101.578 Y115.72 E28.35153
G0 F6000 X101.578 Y115.154
G1 F1200 X118.378 Y131.955 E29.14177
G0 F6000 X118.944 Y131.955
G1 F1200 X101.577 Y114.588 E29.95866
G0 F6000 X101.577 Y114.022
G1 F1200 X119.51 Y131.955 E30.80217
G0 F6000 X120.075 Y131.955
G1 F1200 X101.576 Y113.455 E31.67233
G0 F6000 X101.576 Y112.89
G1 F1200 X120.641 Y131.955 E32.56909
G0 F6000 X121.207 Y131.955
G1 F1200 X101.575 Y112.323 E33.49252
G0 F6000 X101.575 Y111.758
G1 F1200 X121.772 Y131.955 E34.44253
G0 F6000 X122.338 Y131.955
G1 F1200 X101.575 Y111.191 E35.41918
G0 F6000 X101.574 Y110.625
G1 F1200 X122.904 Y131.955 E36.42248
G0 F6000 X123.47 Y131.955
G1 F1200 X101.574 Y110.059 E37.4524
G0 F6000 X101.573 Y109.493
G1 F1200 X124.035 Y131.955 E38.50894
G0 F6000 X124.601 Y131.955
G1 F1200 X101.573 Y108.927 E39.59211
G0 F6000 X101.573 Y108.361
G1 F1200 X125.167 Y131.955 E40.7019
G0 F6000 X125.732 Y131.955
G1 F1200 X101.572 Y107.794 E41.83833
G0 F6000 X101.572 Y107.229
G1 F1200 X126.298 Y131.955 E43.00137
G0 F6000 X126.864 Y131.955
G1 F1200 X101.571 Y106.662 E44.19107
G0 F6000 X101.571 Y106.097
G1 F1200 X127.429 Y131.955 E45.40735
G0 F6000 X127.995 Y131.955
G1 F1200 X101.57 Y105.53 E46.6503
G0 F6000 X101.57 Y104.964
G1 F1200 X128.561 Y131.955 E47.91988
G0 F6000 X129.126 Y131.955
G1 F1200 X101.57 Y104.398 E49.21605
G0 F6000 X101.569 Y103.832
G1 F1200 X129.692 Y131.955 E50.53887
G0 F6000 X130.258 Y131.955
G1 F1200 X101.569 Y103.266 E51.88831
G0 F6000 X101.912 Y103.043
G1 F1200 X130.823 Y131.955 E53.24822
G0 F6000 X131.389 Y131.955
G1 F1200 X102.478 Y103.043 E54.60813
G0 F6000 X103.043 Y103.043
G1 F1200 X131.955 Y131.955 E55.96806
G0 F6000 X132.521 Y131.955
G1 F1200 X103.609 Y103.043 E57.32799
G0 F6000 X104.175 Y103.043
G1 F1200 X133.086 Y131.955 E58.6879
G0 F6000 X133.642 Y131.945
G1 F1200 X104.74 Y103.043 E60.04736
G0 F6000 X105.306 Y103.043
G1 F1200 X133.642 Y131.379 E61.3802
G0 F6000 X133.642 Y130.814
G1 F1200 X105.872 Y103.043 E62.68644
G0 F6000 X106.437 Y103.043
G1 F1200 X133.642 Y130.248 E63.96608
G0 F6000 X133.643 Y129.683
G1 F1200 X107.003 Y103.043 E65.21914
G0 F6000 X107.569 Y103.043
G1 F1200 X133.643 Y129.117 E66.44559
G0 F6000 X133.643 Y128.552
G1 F1200 X108.135 Y103.043 E67.64543
G0 F6000 X108.7 Y103.043
G1 F1200 X133.643 Y127.987 E68.81869
G0 F6000 X133.643 Y127.421
G1 F1200 X109.266 Y103.043 E69.96534
G0 F6000 X109.832 Y103.043
G1 F1200 X133.643 Y126.855 E71.08536
G0 F6000 X133.643 Y126.289
G1 F1200 X110.397 Y103.043 E72.17878
G0 F6000 X110.963 Y103.043
G1 F1200 X133.644 Y125.724 E73.24562
G0 F6000 X133.644 Y125.159
G1 F1200 X111.529 Y103.043 E74.28587
G0 F6000 X112.094 Y103.043
G1 F1200 X133.644 Y124.593 E75.29951
G0 F6000 X133.645 Y124.028
G1 F1200 X112.66 Y103.043 E76.28658
G0 F6000 X113.226 Y103.043
G1 F1200 X133.645 Y123.462 E77.24703
G0 F6000 X133.645 Y122.897
G1 F1200 X113.791 Y103.043 E78.1809
G0 F6000 X114.357 Y103.043
G1 F1200 X133.645 Y122.331 E79.08815
G0 F6000 X133.646 Y121.766
G1 F1200 X114.923 Y103.043 E79.96882
G0 F6000 X115.488 Y103.043
G1 F1200 X133.646 Y121.2 E80.8229
G0 F6000 X133.646 Y120.635
G1 F1200 X116.054 Y103.043 E81.65037
G0 F6000 X116.62 Y103.043
G1 F1200 X133.646 Y120.07 E82.45124
G0 F6000 X133.646 Y119.504
G1 F1200 X117.185 Y103.043 E83.22552
G0 F6000 X117.752 Y103.044
G1 F1200 X133.646 Y118.938 E83.97312
G0 F6000 X133.647 Y118.373
G1 F1200 X118.318 Y103.044 E84.69415
G0 F6000 X118.883 Y103.044
G1 F1200 X133.647 Y117.808 E85.38861
G0 F6000 X133.647 Y117.242
G1 F1200 X119.449 Y103.044 E86.05644
G0 F6000 X120.015 Y103.044
G1 F1200 X133.647 Y116.676 E86.69764
G0 F6000 X133.648 Y116.111
G1 F1200 X120.58 Y103.044 E87.3123
G0 F6000 X121.146 Y103.044
G1 F1200 X133.648 Y115.546 E87.90035
G0 F6000 X133.648 Y114.98
G1 F1200 X121.712 Y103.044 E88.46179
G0 F6000 X122.277 Y103.044
G1 F1200 X133.648 Y114.415 E88.99664
G0 F6000 X133.648 Y113.849
G1 F1200 X122.843 Y103.044 E89.50488
G0 F6000 X123.409 Y103.044
G1 F1200 X133.648 Y113.284 E89.98651
G0 F6000 X133.648 Y112.718
G1 F1200 X123.974 Y103.044 E90.44155
G0 F6000 X124.54 Y103.044
G1 F1200 X133.649 Y112.153 E90.87001
G0 F6000 X133.649 Y111.587
G1 F1200 X125.106 Y103.044 E91.27184
G0 F6000 X125.671 Y103.044
G1 F1200 X133.649 Y111.022 E91.6471
G0 F6000 X133.65 Y110.457
G1 F1200 X126.237 Y103.044 E91.99579
G0 F6000 X126.803 Y103.044
G1 F1200 X133.65 Y109.891 E92.31785
G0 F6000 X133.65 Y109.325
G1 F1200 X127.369 Y103.044 E92.61329
G0 F6000 X127.934 Y103.044
G1 F1200 X133.65 Y108.76 E92.88215
G0 F6000 X133.65 Y108.195
G1 F1200 X128.5 Y103.044 E93.12442
G0 F6000 X129.066 Y103.044
G1 F1200 X133.65 Y107.629 E93.34006
G0 F6000 X133.65 Y107.063
G1 F1200 X129.631 Y103.044 E93.5291
G0 F6000 X130.197 Y103.044
G1 F1200 X133.651 Y106.498 E93.69157
G0 F6000 X133.651 Y105.933
G1 F1200 X130.763 Y103.044 E93.82743
G0 F6000 X131.328 Y103.044
G1 F1200 X133.651 Y105.367 E93.9367
G0 F6000 X133.652 Y104.802
G1 F1200 X131.894 Y103.044 E94.01939
G0 F6000 X132.46 Y103.044
G1 F1200 X133.652 Y104.236 E94.07546
G0 F6000 X133.652 Y103.671
G1 F1200 X133.025 Y103.044 E94.10495
G0 F6000 X133.591 Y103.044
G1 F1200 X133.652 Y103.105 E94.10782
G0 F6000 X134.392 Y103.106
G1 F1500 E87.60782
;MESH:NONMESH
G0 F300 X134.392 Y103.106 Z0.32
G0 F6000 X134.01 Y132.324
G0 X100.786 Y132.506
;TIME_ELAPSED:155.475814
;LAYER:1
M106 S85
;TYPE:WALL-INNER
;MESH:Mini-Blind-Controller-Box-Only.stl
G1 F1500 E94.10782
G1 F1350 X100.766 Y102.693 E94.70277
G1 X100.766 Y102.494 E94.70674
G1 X100.965 Y102.494 E94.70931
G1 X134.177 Y102.494 E95.37209
G1 X134.376 Y102.494 E95.37606
G1 X134.376 Y102.693 E95.37863
G1 X134.365 Y132.506 E95.97358
G1 X100.786 Y132.506 E96.64369
G0 F7500 X100.386 Y132.906
G1 F1350 X100.366 Y102.293 E97.2546
G1 X100.366 Y102.094 E97.25857
G1 X100.565 Y102.094 E97.26114
G1 X134.577 Y102.094 E97.93989
G1 X134.776 Y102.094 E97.94386
G1 X134.776 Y102.293 E97.94643
G1 X134.765 Y132.906 E98.55735
G1 X100.386 Y132.906 E99.24342
G0 F7500 X99.986 Y133.306
;TYPE:WALL-OUTER
G1 F1350 X99.966 Y101.694 E99.87427
G1 X135.176 Y101.694 E100.57692
G1 X135.165 Y133.306 E101.20777
G1 X99.986 Y133.306 E101.90981
G0 F7500 X100.256 Y133.036
G0 X101.176 Y132.396
G0 X101.176 Y132.116
;TYPE:SKIN
G1 F1350 X101.156 Y102.884 E102.49317
G1 X133.986 Y102.884 E103.14832
G1 X133.975 Y132.116 E103.73168
G1 X101.176 Y132.116 E104.38622
G0 F7500 X101.176 Y132.396
G0 X100.876 Y103.461
G0 X101.317 Y103.461
G1 F1350 X101.734 Y103.043 E104.398
G0 F7500 X102.3 Y103.043
G1 F1350 X101.317 Y104.026 E104.42574
G0 F7500 X101.317 Y104.591
G1 F1350 X102.866 Y103.043 E104.46945
G0 F7500 X103.432 Y103.043
G1 F1350 X101.318 Y105.156 E104.52909
G0 F7500 X101.318 Y105.722
G1 F1350 X103.997 Y103.043 E104.6047
G0 F7500 X104.563 Y103.043
G1 F1350 X101.319 Y106.287 E104.69625
G0 F7500 X101.319 Y106.853
G1 F1350 X105.129 Y103.043 E104.80378
G0 F7500 X105.694 Y103.043
G1 F1350 X101.319 Y107.418 E104.92725
G0 F7500 X101.319 Y107.983
G1 F1350 X106.26 Y103.043 E105.06668
G0 F7500 X106.826 Y103.043
G1 F1350 X101.32 Y108.548 E105.22206
G0 F7500 X101.32 Y109.114
G1 F1350 X107.391 Y103.043 E105.3934
G0 F7500 X107.957 Y103.043
G1 F1350 X101.321 Y109.679 E105.58068
G0 F7500 X101.321 Y110.245
G1 F1350 X108.523 Y103.043 E105.78394
G0 F7500 X109.088 Y103.043
G1 F1350 X101.322 Y110.809 E106.00311
G0 F7500 X101.322 Y111.374
G1 F1350 X109.654 Y103.043 E106.23824
G0 F7500 X110.22 Y103.043
G1 F1350 X101.322 Y111.94 E106.48935
G0 F7500 X101.323 Y112.505
G1 F1350 X110.785 Y103.043 E106.75639
G0 F7500 X111.351 Y103.043
G1 F1350 X101.323 Y113.071 E107.0394
G0 F7500 X101.324 Y113.636
G1 F1350 X111.917 Y103.043 E107.33836
G0 F7500 X112.483 Y103.043
G1 F1350 X101.324 Y114.201 E107.65327
G0 F7500 X101.324 Y114.766
G1 F1350 X113.048 Y103.043 E107.98414
G0 F7500 X113.614 Y103.043
G1 F1350 X101.324 Y115.332 E108.33097
G0 F7500 X101.325 Y115.897
G1 F1350 X114.18 Y103.043 E108.69375
G0 F7500 X114.745 Y103.043
G1 F1350 X101.325 Y116.463 E109.07249
G0 F7500 X101.326 Y117.028
G1 F1350 X115.311 Y103.043 E109.46718
G0 F7500 X115.877 Y103.043
G1 F1350 X101.326 Y117.593 E109.87783
G0 F7500 X101.326 Y118.158
G1 F1350 X116.442 Y103.043 E110.30442
G0 F7500 X117.008 Y103.043
G1 F1350 X101.327 Y118.723 E110.74696
G0 F7500 X101.327 Y119.289
G1 F1350 X117.574 Y103.043 E111.20547
G0 F7500 X118.139 Y103.043
G1 F1350 X101.328 Y119.854 E111.67991
G0 F7500 X101.328 Y120.42
G1 F1350 X118.705 Y103.043 E112.17033
G0 F7500 X119.271 Y103.043
G1 F1350 X101.329 Y120.985 E112.67669
G0 F7500 X101.329 Y121.55
G1 F1350 X119.836 Y103.043 E113.199
G0 F7500 X120.402 Y103.043
G1 F1350 X101.329 Y122.115 E113.73726
G0 F7500 X101.33 Y122.68
G1 F1350 X120.968 Y103.043 E114.29148
G0 F7500 X121.533 Y103.043
G1 F1350 X101.33 Y123.246 E114.86165
G0 F7500 X101.331 Y123.811
G1 F1350 X122.099 Y103.043 E115.44777
G0 F7500 X122.665 Y103.043
G1 F1350 X101.331 Y124.377 E116.04986
G0 F7500 X101.331 Y124.942
G1 F1350 X123.231 Y103.043 E116.66791
G0 F7500 X123.796 Y103.043
G1 F1350 X101.331 Y125.507 E117.30191
G0 F7500 X101.332 Y126.072
G1 F1350 X124.362 Y103.043 E117.95185
G0 F7500 X124.928 Y103.043
G1 F1350 X101.332 Y126.638 E118.61777
G0 F7500 X101.333 Y127.203
G1 F1350 X125.493 Y103.043 E119.29961
G0 F7500 X126.059 Y103.043
G1 F1350 X101.333 Y127.769 E119.99743
G0 F7500 X101.334 Y128.334
G1 F1350 X126.625 Y103.043 E120.7112
G0 F7500 X127.19 Y103.043
G1 F1350 X101.334 Y128.899 E121.44091
G0 F7500 X101.334 Y129.464
G1 F1350 X127.756 Y103.043 E122.18658
G0 F7500 X128.322 Y103.043
G1 F1350 X101.335 Y130.029 E122.9482
G0 F7500 X101.335 Y130.595
G1 F1350 X128.887 Y103.043 E123.72578
G0 F7500 X129.453 Y103.043
G1 F1350 X101.336 Y131.16 E124.5193
G0 F7500 X101.336 Y131.726
G1 F1350 X130.019 Y103.043 E125.3288
G0 F7500 X130.584 Y103.043
G1 F1350 X101.672 Y131.956 E126.14477
G0 F7500 X102.237 Y131.956
G1 F1350 X131.15 Y103.043 E126.96076
G0 F7500 X131.716 Y103.043
G1 F1350 X102.803 Y131.956 E127.77675
G0 F7500 X103.369 Y131.956
G1 F1350 X132.282 Y103.043 E128.59273
G0 F7500 X132.847 Y103.043
G1 F1350 X103.934 Y131.956 E129.40872
G0 F7500 X104.5 Y131.956
G1 F1350 X133.413 Y103.043 E130.22471
G0 F7500 X133.824 Y103.197
G1 F1350 X105.066 Y131.956 E131.03633
G0 F7500 X105.631 Y131.956
G1 F1350 X133.824 Y103.762 E131.83202
G0 F7500 X133.824 Y104.328
G1 F1350 X106.197 Y131.956 E132.61172
G0 F7500 X106.763 Y131.956
G1 F1350 X133.824 Y104.895 E133.37544
G0 F7500 X133.824 Y105.46
G1 F1350 X107.328 Y131.956 E134.12322
G0 F7500 X107.894 Y131.956
G1 F1350 X133.824 Y106.026 E134.85502
G0 F7500 X133.824 Y106.592
G1 F1350 X108.46 Y131.956 E135.57085
G0 F7500 X109.025 Y131.956
G1 F1350 X133.823 Y107.158 E136.2707
G0 F7500 X133.823 Y107.724
G1 F1350 X109.591 Y131.956 E136.95458
G0 F7500 X110.157 Y131.956
G1 F1350 X133.823 Y108.289 E137.6225
G0 F7500 X133.822 Y108.856
G1 F1350 X110.723 Y131.956 E138.27442
G0 F7500 X111.288 Y131.956
G1 F1350 X133.822 Y109.421 E138.91039
G0 F7500 X133.822 Y109.987
G1 F1350 X111.854 Y131.956 E139.53039
G0 F7500 X112.42 Y131.956
G1 F1350 X133.822 Y110.554 E140.1344
G0 F7500 X133.822 Y111.119
G1 F1350 X112.985 Y131.956 E140.72246
G0 F7500 X113.551 Y131.956
G1 F1350 X133.822 Y111.685 E141.29455
G0 F7500 X133.821 Y112.251
G1 F1350 X114.117 Y131.956 E141.85066
G0 F7500 X114.682 Y131.956
G1 F1350 X133.821 Y112.817 E142.3908
G0 F7500 X133.821 Y113.383
G1 F1350 X115.248 Y131.956 E142.91497
G0 F7500 X115.814 Y131.956
G1 F1350 X133.82 Y113.949 E143.42315
G0 F7500 X133.82 Y114.515
G1 F1350 X116.379 Y131.956 E143.91538
G0 F7500 X116.945 Y131.956
G1 F1350 X133.82 Y115.08 E144.39164
G0 F7500 X133.82 Y115.646
G1 F1350 X117.511 Y131.956 E144.85193
G0 F7500 X118.076 Y131.956
G1 F1350 X133.819 Y116.212 E145.29624
G0 F7500 X133.819 Y116.778
G1 F1350 X118.642 Y131.956 E145.72459
G0 F7500 X119.208 Y131.956
G1 F1350 X133.819 Y117.344 E146.13695
G0 F7500 X133.819 Y117.91
G1 F1350 X119.773 Y131.956 E146.53336
G0 F7500 X120.339 Y131.956
G1 F1350 X133.819 Y118.476 E146.9138
G0 F7500 X133.819 Y119.042
G1 F1350 X120.905 Y131.956 E147.27826
G0 F7500 X121.471 Y131.956
G1 F1350 X133.818 Y119.608 E147.62673
G0 F7500 X133.818 Y120.174
G1 F1350 X122.036 Y131.956 E147.95924
G0 F7500 X122.602 Y131.956
G1 F1350 X133.818 Y120.739 E148.2758
G0 F7500 X133.817 Y121.306
G1 F1350 X123.168 Y131.956 E148.57635
G0 F7500 X123.733 Y131.956
G1 F1350 X133.817 Y121.871 E148.86096
G0 F7500 X133.817 Y122.437
G1 F1350 X124.299 Y131.956 E149.12959
G0 F7500 X124.865 Y131.956
G1 F1350 X133.817 Y123.004 E149.38223
G0 F7500 X133.817 Y123.569
G1 F1350 X125.43 Y131.956 E149.61893
G0 F7500 X125.996 Y131.956
