;FLAVOR:Marlin
;TIME:12949
;Filament used: 5.49255m
;Layer height: 0.12
;MINX:98.7
;MINY:90.336
;MINZ:0.12
;MAXX:136.3
;MAXY:143.799
;MAXZ:22.92
;Generated with Cura_SteamEngine 4.8.0
M140 S60
M105
M190 S60
M104 S200
M105
M109 S200
M82 ;absolute extrusion mode
; Ender 3 Custom Start G-code
G92 E0 ; Reset Extruder
G28 ; Home all axes
G1 Z2.0 F3000 ; Move Z Axis up little to prevent scratching of Heat Bed
G1 X0.1 Y20 Z0.3 F5000.0 ; Move to start position
G1 X0.1 Y200.0 Z0.3 F1500.0 E15 ; Draw the first line
G1 X0.4 Y200.0 Z0.3 F5000.0 ; Move to side a little
G1 X0.4 Y20 Z0.3 F1500.0 E30 ; Draw the second line
G92 E0 ; Reset Extruder
G1 Z2.0 F3000 ; Move Z Axis up little to prevent scratching of Heat Bed
G1 X5 Y20 Z0.3 F5000.0 ; Move over to prevent blob squish
G92 E0
G92 E0
G1 F1500 E-6.5
;LAYER_COUNT:191
;LAYER:0
M107
;MESH:Mini-Blind-Motor-Mount-with-Controller-Box.stl
G0 F6000 X101.337 Y142.999 Z0.12
;TYPE:WALL-INNER
G1 F1500 E0
G1 F1200 X101.317 Y112.999 E0.59868
G1 X100.999 Y112.999 E0.60503
G1 X101 Y92.001 E1.02407
G1 X133.996 Y92.001 E1.68254
G1 X133.996 Y112.999 E2.10158
G1 X133.918 Y112.999 E2.10313
G1 X133.916 Y142.999 E2.70181
G1 X101.337 Y142.999 E3.35196
G0 F6000 X100.937 Y143.399
G1 F1200 X100.917 Y113.399 E3.95065
G1 X100.599 Y113.399 E3.95699
G1 X100.6 Y91.601 E4.39199
G1 X134.396 Y91.601 E5.06643
G1 X134.396 Y113.399 E5.50143
G1 X134.318 Y113.399 E5.50299
G1 X134.316 Y143.399 E6.10167
G1 X100.937 Y143.399 E6.76779
G0 F6000 X100.537 Y143.799
;TYPE:WALL-OUTER
G1 F1200 X100.517 Y113.799 E7.36647
G1 X100.199 Y113.799 E7.37281
G1 X100.2 Y91.201 E7.82378
G1 X134.796 Y91.201 E8.51418
G1 X134.796 Y113.799 E8.96515
G1 X134.718 Y113.799 E8.96671
G1 X134.716 Y143.799 E9.56539
G1 X100.537 Y143.799 E10.24747
G0 F6000 X100.807 Y143.529
G0 X101.727 Y142.889
G0 X101.727 Y142.609
;TYPE:SKIN
G1 F1200 X101.707 Y112.609 E10.84615
G1 X101.389 Y112.609 E10.8525
G1 X101.39 Y92.391 E11.25597
G1 X133.606 Y92.391 E11.89887
G1 X133.606 Y112.609 E12.30235
G1 X133.528 Y112.609 E12.3039
G1 X133.526 Y142.609 E12.90258
G1 X101.727 Y142.609 E13.53717
G0 F6000 X102.284 Y142.448
G1 F1200 X101.886 Y142.049 E13.54841
G0 F6000 X101.886 Y141.484
G1 F1200 X102.85 Y142.448 E13.57562
G0 F6000 X103.415 Y142.448
G1 F1200 X101.885 Y140.917 E13.61881
G0 F6000 X101.885 Y140.352
G1 F1200 X103.981 Y142.448 E13.67797
G0 F6000 X104.547 Y142.448
G1 F1200 X101.884 Y139.785 E13.75312
G0 F6000 X101.884 Y139.219
G1 F1200 X105.112 Y142.448 E13.84424
G0 F6000 X105.678 Y142.448
G1 F1200 X101.884 Y138.653 E13.95133
G0 F6000 X101.883 Y138.087
G1 F1200 X106.244 Y142.448 E14.07441
G0 F6000 X106.809 Y142.448
G1 F1200 X101.883 Y137.521 E14.21344
G0 F6000 X101.882 Y136.955
G1 F1200 X107.375 Y142.448 E14.36847
G0 F6000 X107.941 Y142.448
G1 F1200 X101.882 Y136.389 E14.53946
G0 F6000 X101.882 Y135.823
G1 F1200 X108.506 Y142.448 E14.72642
G0 F6000 X109.072 Y142.448
G1 F1200 X101.882 Y135.257 E14.92935
G0 F6000 X101.881 Y134.691
G1 F1200 X109.638 Y142.448 E15.14827
G0 F6000 X110.204 Y142.448
G1 F1200 X101.881 Y134.125 E15.38317
G0 F6000 X101.88 Y133.559
G1 F1200 X110.769 Y142.448 E15.63403
G0 F6000 X111.335 Y142.448
G1 F1200 X101.88 Y132.993 E15.90087
G0 F6000 X101.879 Y132.426
G1 F1200 X111.901 Y142.448 E16.18372
G0 F6000 X112.466 Y142.448
G1 F1200 X101.879 Y131.861 E16.4825
G0 F6000 X101.879 Y131.294
G1 F1200 X113.032 Y142.448 E16.79728
G0 F6000 X113.598 Y142.448
G1 F1200 X101.879 Y130.729 E17.12801
G0 F6000 X101.878 Y130.162
G1 F1200 X114.163 Y142.448 E17.47474
G0 F6000 X114.729 Y142.448
G1 F1200 X101.878 Y129.597 E17.83742
G0 F6000 X101.877 Y129.03
G1 F1200 X115.295 Y142.448 E18.21611
G0 F6000 X115.86 Y142.448
G1 F1200 X101.877 Y128.464 E18.61075
G0 F6000 X101.877 Y127.898
G1 F1200 X116.426 Y142.448 E19.02137
G0 F6000 X116.992 Y142.448
G1 F1200 X101.876 Y127.332 E19.44798
G0 F6000 X101.876 Y126.766
G1 F1200 X117.557 Y142.448 E19.89054
G0 F6000 X118.123 Y142.448
G1 F1200 X101.875 Y126.2 E20.34909
G0 F6000 X101.875 Y125.634
G1 F1200 X118.689 Y142.448 E20.82362
G0 F6000 X119.254 Y142.448
G1 F1200 X101.874 Y125.068 E21.31412
G0 F6000 X101.874 Y124.502
G1 F1200 X119.82 Y142.448 E21.8206
G0 F6000 X120.386 Y142.448
G1 F1200 X101.874 Y123.936 E22.34305
G0 F6000 X101.874 Y123.37
G1 F1200 X120.952 Y142.448 E22.88147
G0 F6000 X121.517 Y142.448
G1 F1200 X101.873 Y122.803 E23.43588
G0 F6000 X101.873 Y122.238
G1 F1200 X122.083 Y142.448 E24.00625
G0 F6000 X122.649 Y142.448
G1 F1200 X101.872 Y121.671 E24.59262
G0 F6000 X101.872 Y121.106
G1 F1200 X123.214 Y142.448 E25.19494
G0 F6000 X123.78 Y142.448
G1 F1200 X101.872 Y120.539 E25.81324
G0 F6000 X101.872 Y119.974
G1 F1200 X124.346 Y142.448 E26.44751
G0 F6000 X124.911 Y142.448
G1 F1200 X101.871 Y119.407 E27.09776
G0 F6000 X101.87 Y118.841
G1 F1200 X125.477 Y142.448 E27.764
G0 F6000 X126.043 Y142.448
G1 F1200 X101.87 Y118.275 E28.44622
G0 F6000 X101.87 Y117.709
G1 F1200 X126.608 Y142.448 E29.14439
G0 F6000 X127.174 Y142.448
G1 F1200 X101.87 Y117.143 E29.85854
G0 F6000 X101.869 Y116.577
G1 F1200 X127.74 Y142.448 E30.58867
G0 F6000 X128.305 Y142.448
G1 F1200 X101.869 Y116.011 E31.33477
G0 F6000 X101.868 Y115.445
G1 F1200 X128.871 Y142.448 E32.09685
G0 F6000 X129.437 Y142.448
G1 F1200 X101.868 Y114.879 E32.87491
G0 F6000 X101.867 Y114.313
G1 F1200 X130.002 Y142.448 E33.66894
G0 F6000 X130.568 Y142.448
G1 F1200 X101.867 Y113.747 E34.47894
G0 F6000 X101.867 Y113.18
G1 F1200 X131.134 Y142.448 E35.30493
G0 F6000 X131.7 Y142.448
G1 F1200 X101.867 Y112.615 E36.14689
G0 F6000 X101.7 Y112.448
G1 F1200 X101.549 Y112.297 E36.15115
G0 F6000 X101.549 Y111.731
G1 F1200 X132.265 Y142.448 E37.01803
G0 F6000 X132.831 Y142.448
G1 F1200 X101.549 Y111.165 E37.90089
G0 F6000 X101.549 Y110.599
G1 F1200 X133.366 Y142.417 E38.79885
G0 F6000 X133.366 Y141.851
G1 F1200 X101.549 Y110.034 E39.6968
G0 F6000 X101.549 Y109.468
G1 F1200 X133.366 Y141.286 E40.59476
G0 F6000 X133.366 Y140.72
G1 F1200 X101.549 Y108.902 E41.49271
G0 F6000 X101.549 Y108.337
G1 F1200 X133.366 Y140.154 E42.39066
G0 F6000 X133.366 Y139.589
G1 F1200 X101.549 Y107.771 E43.28862
G0 F6000 X101.549 Y107.205
G1 F1200 X133.366 Y139.023 E44.18658
G0 F6000 X133.366 Y138.457
G1 F1200 X101.549 Y106.64 E45.08452
G0 F6000 X101.549 Y106.074
G1 F1200 X133.366 Y137.892 E45.98248
G0 F6000 X133.366 Y137.326
G1 F1200 X101.549 Y105.508 E46.88044
G0 F6000 X101.549 Y104.943
G1 F1200 X133.366 Y136.76 E47.77838
G0 F6000 X133.366 Y136.195
G1 F1200 X101.549 Y104.377 E48.67634
G0 F6000 X101.549 Y103.811
G1 F1200 X133.366 Y135.629 E49.5743
G0 F6000 X133.366 Y135.063
G1 F1200 X101.549 Y103.246 E50.47224
G0 F6000 X101.549 Y102.68
G1 F1200 X133.366 Y134.498 E51.3702
G0 F6000 X133.366 Y133.932
G1 F1200 X101.549 Y102.114 E52.26816
G0 F6000 X101.549 Y101.549
G1 F1200 X133.366 Y133.366 E53.16611
G0 F6000 X133.366 Y132.801
G1 F1200 X101.549 Y100.983 E54.06406
G0 F6000 X101.549 Y100.417
G1 F1200 X133.366 Y132.235 E54.96202
G0 F6000 X133.366 Y131.669
G1 F1200 X101.549 Y99.851 E55.85998
G0 F6000 X101.549 Y99.286
G1 F1200 X133.366 Y131.103 E56.75793
G0 F6000 X133.366 Y130.538
G1 F1200 X101.549 Y98.72 E57.65588
G0 F6000 X101.549 Y98.154
G1 F1200 X133.366 Y129.972 E58.55384
G0 F6000 X133.366 Y129.406
G1 F1200 X101.549 Y97.589 E59.45179
G0 F6000 X101.549 Y97.023
G1 F1200 X133.366 Y128.841 E60.34975
G0 F6000 X133.366 Y128.275
G1 F1200 X101.549 Y96.457 E61.2477
G0 F6000 X101.549 Y95.892
G1 F1200 X133.366 Y127.709 E62.14565
G0 F6000 X133.366 Y127.144
G1 F1200 X101.549 Y95.326 E63.04361
G0 F6000 X101.549 Y94.76
G1 F1200 X133.366 Y126.578 E63.94157
G0 F6000 X133.366 Y126.012
G1 F1200 X101.549 Y94.195 E64.83951
G0 F6000 X101.549 Y93.629
G1 F1200 X133.366 Y125.447 E65.73747
G0 F6000 X133.366 Y124.881
G1 F1200 X101.549 Y93.063 E66.63543
G0 F6000 X101.602 Y92.551
G1 F1200 X133.366 Y124.315 E67.53188
G0 F6000 X133.366 Y123.75
G1 F1200 X102.167 Y92.551 E68.41238
G0 F6000 X102.733 Y92.551
G1 F1200 X133.366 Y123.184 E69.27691
G0 F6000 X133.366 Y122.618
G1 F1200 X103.299 Y92.551 E70.12546
G0 F6000 X103.864 Y92.551
G1 F1200 X133.366 Y122.052 E70.95806
G0 F6000 X133.366 Y121.487
G1 F1200 X104.43 Y92.551 E71.7747
G0 F6000 X104.996 Y92.551
G1 F1200 X133.366 Y120.921 E72.57536
G0 F6000 X133.366 Y120.355
G1 F1200 X105.561 Y92.551 E73.36006
G0 F6000 X106.127 Y92.551
G1 F1200 X133.366 Y119.79 E74.12881
G0 F6000 X133.366 Y119.224
G1 F1200 X106.693 Y92.551 E74.88158
G0 F6000 X107.258 Y92.551
G1 F1200 X133.366 Y118.658 E75.61839
G0 F6000 X133.366 Y118.093
G1 F1200 X107.824 Y92.551 E76.33924
G0 F6000 X108.39 Y92.551
G1 F1200 X133.366 Y117.527 E77.04411
G0 F6000 X133.366 Y116.961
G1 F1200 X108.955 Y92.551 E77.73303
G0 F6000 X109.521 Y92.551
G1 F1200 X133.366 Y116.396 E78.40599
G0 F6000 X133.366 Y115.83
G1 F1200 X110.087 Y92.551 E79.06297
G0 F6000 X110.653 Y92.551
G1 F1200 X133.366 Y115.264 E79.70398
G0 F6000 X133.366 Y114.699
G1 F1200 X111.218 Y92.551 E80.32905
G0 F6000 X111.784 Y92.551
G1 F1200 X133.366 Y114.133 E80.93814
G0 F6000 X133.366 Y113.567
G1 F1200 X112.35 Y92.551 E81.53125
G0 F6000 X112.915 Y92.551
G1 F1200 X133.366 Y113.002 E82.10842
G0 F6000 X133.379 Y112.449
G1 F1200 X113.481 Y92.551 E82.66999
G0 F6000 X114.047 Y92.551
G1 F1200 X133.445 Y111.949 E83.21744
G0 F6000 X133.445 Y111.384
G1 F1200 X114.612 Y92.551 E83.74895
G0 F6000 X115.178 Y92.551
G1 F1200 X133.445 Y110.818 E84.26448
G0 F6000 X133.445 Y110.252
G1 F1200 X115.744 Y92.551 E84.76405
G0 F6000 X116.309 Y92.551
G1 F1200 X133.445 Y109.687 E85.24766
G0 F6000 X133.445 Y109.121
G1 F1200 X116.875 Y92.551 E85.7153
G0 F6000 X117.441 Y92.551
G1 F1200 X133.445 Y108.555 E86.16697
G0 F6000 X133.445 Y107.99
G1 F1200 X118.006 Y92.551 E86.60269
G0 F6000 X118.572 Y92.551
G1 F1200 X133.445 Y107.424 E87.02244
G0 F6000 X133.445 Y106.858
G1 F1200 X119.138 Y92.551 E87.42621
G0 F6000 X119.703 Y92.551
G1 F1200 X133.445 Y106.292 E87.81403
G0 F6000 X133.445 Y105.727
G1 F1200 X120.269 Y92.551 E88.18588
G0 F6000 X120.835 Y92.551
G1 F1200 X133.445 Y105.161 E88.54176
G0 F6000 X133.445 Y104.595
G1 F1200 X121.401 Y92.551 E88.88167
G0 F6000 X121.966 Y92.551
G1 F1200 X133.445 Y104.03 E89.20563
G0 F6000 X133.445 Y103.464
G1 F1200 X122.532 Y92.551 E89.51362
G0 F6000 X123.098 Y92.551
G1 F1200 X133.445 Y102.898 E89.80564
G0 F6000 X133.445 Y102.333
G1 F1200 X123.663 Y92.551 E90.08171
G0 F6000 X124.229 Y92.551
G1 F1200 X133.445 Y101.767 E90.3418
G0 F6000 X133.445 Y101.201
G1 F1200 X124.795 Y92.551 E90.58592
G0 F6000 X125.36 Y92.551
G1 F1200 X133.445 Y100.636 E90.8141
G0 F6000 X133.445 Y100.07
G1 F1200 X125.926 Y92.551 E91.0263
G0 F6000 X126.492 Y92.551
G1 F1200 X133.445 Y99.504 E91.22253
G0 F6000 X133.445 Y98.939
G1 F1200 X127.057 Y92.551 E91.40281
G0 F6000 X127.623 Y92.551
G1 F1200 X133.445 Y98.373 E91.56712
G0 F6000 X133.445 Y97.807
G1 F1200 X128.189 Y92.551 E91.71546
G0 F6000 X128.754 Y92.551
G1 F1200 X133.445 Y97.242 E91.84785
G0 F6000 X133.445 Y96.676
G1 F1200 X129.32 Y92.551 E91.96427
G0 F6000 X129.886 Y92.551
G1 F1200 X133.445 Y96.11 E92.06471
G0 F6000 X133.445 Y95.544
G1 F1200 X130.452 Y92.551 E92.14918
G0 F6000 X131.017 Y92.551
G1 F1200 X133.445 Y94.979 E92.2177
G0 F6000 X133.445 Y94.413
G1 F1200 X131.583 Y92.551 E92.27025
G0 F6000 X132.149 Y92.551
G1 F1200 X133.445 Y93.847 E92.30683
G0 F6000 X133.445 Y93.282
G1 F1200 X132.714 Y92.551 E92.32746
G0 F6000 X133.28 Y92.551
G1 F1200 X133.445 Y92.716 E92.33211
G0 F6000 X134.186 Y92.716
G1 F1500 E85.83211
;MESH:NONMESH
G0 F300 X134.186 Y92.716 Z0.24
G0 F6000 X133.734 Y142.817
G0 X101.083 Y142.999
;TIME_ELAPSED:248.340516
;LAYER:1
M106 S85
;TYPE:WALL-INNER
;MESH:Mini-Blind-Motor-Mount-with-Controller-Box.stl
G1 F1500 E92.33211
G1 F1350 X101.066 Y121.171 E92.76772
G1 X101.063 Y112.999 E92.9308
G1 X100.66 Y112.999 E92.93884
G1 X100.66 Y92.001 E93.35788
G1 X134.338 Y92.001 E94.02996
G1 X134.339 Y112.999 E94.449
G1 X134.173 Y112.999 E94.45231
G1 X134.163 Y142.999 E95.05099
G1 X101.083 Y142.999 E95.71114
G0 F7500 X100.683 Y143.399
G1 F1350 X100.666 Y121.171 E96.15472
G1 X100.663 Y113.399 E96.30982
G1 X100.26 Y113.399 E96.31786
G1 X100.26 Y91.601 E96.75286
G1 X134.738 Y91.601 E97.44091
G1 X134.739 Y113.399 E97.87591
G1 X134.573 Y113.399 E97.87923
G1 X134.563 Y143.399 E98.47791
G1 X100.683 Y143.399 E99.15402
G0 F7500 X100.283 Y143.799
;TYPE:WALL-OUTER
G1 F1350 X100.266 Y121.171 E99.60559
G1 X100.263 Y113.799 E99.7527
G1 X99.86 Y113.799 E99.76075
G1 X99.86 Y91.201 E100.21171
G1 X135.138 Y91.201 E100.91572
G1 X135.139 Y113.799 E101.36669
G1 X134.973 Y113.799 E101.37
G1 X134.963 Y143.799 E101.96869
G1 X100.283 Y143.799 E102.66076
G0 F7500 X100.553 Y143.529
G0 X101.473 Y142.889
G0 X101.473 Y142.609
;TYPE:SKIN
G1 F1350 X101.456 Y121.171 E103.08858
G1 X101.453 Y112.609 E103.25945
G1 X101.05 Y112.609 E103.26749
G1 X101.05 Y92.391 E103.67096
G1 X133.948 Y92.391 E104.32748
G1 X133.949 Y112.609 E104.73095
G1 X133.783 Y112.609 E104.73426
G1 X133.773 Y142.609 E105.33294
G1 X101.473 Y142.609 E105.97752
G1 F1500 E99.47752
G0 F7500 X101.473 Y142.889
G0 X133.04 Y142.889
G0 X133.04 Y142.448
G1 F1500 E105.97752
G1 F1350 X133.613 Y141.875 E105.9937
G0 F7500 X133.613 Y141.309
G1 F1350 X132.474 Y142.448 E106.02584
G0 F7500 X131.908 Y142.448
G1 F1350 X133.613 Y140.743 E106.07396
G0 F7500 X133.613 Y140.178
G1 F1350 X131.342 Y142.448 E106.13804
G0 F7500 X130.777 Y142.448
G1 F1350 X133.614 Y139.611 E106.2181
G0 F7500 X133.614 Y139.046
G1 F1350 X130.211 Y142.448 E106.31413
G0 F7500 X129.645 Y142.448
G1 F1350 X133.614 Y138.48 E106.42613
G0 F7500 X133.614 Y137.914
G1 F1350 X129.08 Y142.448 E106.55409
G0 F7500 X128.514 Y142.448
G1 F1350 X133.614 Y137.348 E106.69802
G0 F7500 X133.614 Y136.782
G1 F1350 X127.948 Y142.448 E106.85793
G0 F7500 X127.383 Y142.448
G1 F1350 X133.614 Y136.217 E107.03378
G0 F7500 X133.614 Y135.651
G1 F1350 X126.817 Y142.448 E107.22561
G0 F7500 X126.251 Y142.448
G1 F1350 X133.615 Y135.084 E107.43343
G0 F7500 X133.615 Y134.519
G1 F1350 X125.686 Y142.448 E107.65721
G0 F7500 X125.12 Y142.448
G1 F1350 X133.615 Y133.953 E107.89696
G0 F7500 X133.615 Y133.387
G1 F1350 X124.554 Y142.448 E108.15268
G0 F7500 X123.989 Y142.448
G1 F1350 X133.616 Y132.821 E108.42437
G0 F7500 X133.616 Y132.255
G1 F1350 X123.423 Y142.448 E108.71204
G0 F7500 X122.857 Y142.448
G1 F1350 X133.616 Y131.69 E109.01567
G0 F7500 X133.616 Y131.124
G1 F1350 X122.291 Y142.448 E109.33527
G0 F7500 X121.726 Y142.448
G1 F1350 X133.617 Y130.558 E109.67085
G0 F7500 X133.617 Y129.992
G1 F1350 X121.16 Y142.448 E110.02239
G0 F7500 X120.594 Y142.448
G1 F1350 X133.617 Y129.426 E110.38992
G0 F7500 X133.617 Y128.861
G1 F1350 X120.029 Y142.448 E110.77339
G0 F7500 X119.463 Y142.448
G1 F1350 X133.617 Y128.294 E111.17284
G0 F7500 X133.617 Y127.728
G1 F1350 X118.897 Y142.448 E111.58827
G0 F7500 X118.332 Y142.448
G1 F1350 X133.617 Y127.163 E112.01965
G0 F7500 X133.617 Y126.597
G1 F1350 X117.766 Y142.448 E112.467
G0 F7500 X117.2 Y142.448
G1 F1350 X133.618 Y126.031 E112.93034
G0 F7500 X133.618 Y125.465
G1 F1350 X116.635 Y142.448 E113.40963
G0 F7500 X116.069 Y142.448
G1 F1350 X133.618 Y124.899 E113.9049
G0 F7500 X133.618 Y124.334
G1 F1350 X115.503 Y142.448 E114.41613
G0 F7500 X114.938 Y142.448
G1 F1350 X133.619 Y123.767 E114.94335
G0 F7500 X133.619 Y123.202
G1 F1350 X114.372 Y142.448 E115.48653
G0 F7500 X113.806 Y142.448
G1 F1350 X133.619 Y122.636 E116.04568
G0 F7500 X133.619 Y122.07
G1 F1350 X113.241 Y142.448 E116.62079
G0 F7500 X112.675 Y142.448
G1 F1350 X133.619 Y121.504 E117.21188
G0 F7500 X133.619 Y120.938
G1 F1350 X112.109 Y142.448 E117.81894
G0 F7500 X111.543 Y142.448
G1 F1350 X133.619 Y120.372 E118.44197
G0 F7500 X133.619 Y119.807
G1 F1350 X110.978 Y142.448 E119.08095
G0 F7500 X110.412 Y142.448
G1 F1350 X133.62 Y119.24 E119.73593
G0 F7500 X133.62 Y118.675
G1 F1350 X109.846 Y142.448 E120.40687
G0 F7500 X109.281 Y142.448
G1 F1350 X133.62 Y118.109 E121.09376
G0 F7500 X133.62 Y117.543
G1 F1350 X108.715 Y142.448 E121.79664
G0 F7500 X108.149 Y142.448
G1 F1350 X133.621 Y116.977 E122.5155
G0 F7500 X133.621 Y116.411
G1 F1350 X107.584 Y142.448 E123.25032
G0 F7500 X107.018 Y142.448
G1 F1350 X133.621 Y115.846 E124.0011
G0 F7500 X133.621 Y115.28
G1 F1350 X106.452 Y142.448 E124.76785
G0 F7500 X105.887 Y142.448
